X: 3
T: Miss Coopers Fancy
%R: jig
B: "Twenty Four Country Dances for the Year 1780", Thomas Skillern, ed. p.2 #1
F: http://www.vwml.org/browse/browse-collections-dance-tune-books/browse-skillerns1780#
Z: 2014 John Chambers <jc:trillian.mit.edu>
M: 6/8
L: 1/8
K: Bb
|:\
B2f fdB | gec fdB | B2f fdB | ecA BFD |\
B2f fdB | c2g gec | d2f fed | B3 B,3 :|
|:\
b2b bag | {g}f2f def | {^f}g2g gfe | {e}d2d Bcd |\
e2e cde | f2f gec | fdB ecA | B3 B,3 :|
%%begintext align
%%   Right hands across Left hands back
%% again Lead down two Cu.s up again and
%% cast off turn your Part.r with the Right hand
%% the same with the Left hand lead thro' the bottom
%% come up one Cu: lead thro' the top & cast off.
%%endtext

%%sep 1 1 500
%%sep 1 1 500
